X: 1591
T: Jim Harrison's Princess Polka
B: australian traditional tunes wiki
M:2/4
L:1/8
R: Polka
Q: 1/4=100
K:G
V:1 
"G"d2e>e|dGB2|"D7"A2c>A|"G"GBd2|d2e>e|dGB2|"D7"A2c>A|EF "G"G>e|
"G"dB B>e|dB B>e|dB B>A|"Em"GE E>e|"G"dB B>e|dB B>e|"D7"dB c>F|"G"AGG2||
% abcbook-tune_id 6342d53a3e4c44a91fe9167d


% abcbook-boost 0
% abcbook-tablature 
% abcbook-transpose 
% abcbook-lastupdated 1665324372788
% abcbook-soundfonts 
% abcbook-repeats 1
% NFF Book 2016

